X: 778
T: Gamzedeyim Devâ Bulmam
C: Tatyos Efendi
O: Turkey
F: http://compmusic.upf.edu/node/140
N: ussak--sarki--sofyan--gamzedeyim_deva--tatyos_efendi
N: makam= ussak
N: form= sarki
N: usul= sofyan = 4/4
M: 4/4
L: 1/16
K: C _2/4B   
Q: 1/4=80
%%MIDI tuningsystem comma53
A4 f2e2 f2e2 f2e2  | f2e2 f2g2 agfe d4  | \
w:  ARANAĞME  |   | 
z4 dec2 d2e2 c2BA  | 
w:   | 
A2_1/4BA dcd2 c_2/4BBA A4  | e2{g}fe e4 d2{f}ed d4  | \
w:   |   | 
c2BA _1/4Bcd2 c_2/4BBA A4  | 
w:   | 
e2{g}fe e4 d2{f}ed d4  | c2BA _1/4Bcd2 c_2/4BBA A4  | \
w:   |   | 
c2d14  | 
w:  Hey  hey   | 
d2cd e2{f}ed d2cd e2{f}ed  | d3c c3B B2AG d2{f}ed  | 
w:  hey   |  hey  *  *  *  *  *  *  hey   | 
c2d6 cBAG d4  | e2^3/4fg a2g=f e2d2 c2B2  | \
w:  hey   *  SAZ  |   | 
A2g2 f2e2 eddc d2{f}ed  | 
w:   | 
d4 c2d2 d2{f}ed d4  | e2fg e2d2 c3B A4  | \
w:  *  Gam ze de *  *  *  yim   |  de vâ  *  *  *  bul *  mam    | 
(3_1/4B2A2B2 c2d2 c2_2/4BA _1/4B2A2  | 
w:  *  *  *  Ga ri bim  *  *  bir   | 
c2d4c2 B3A A4  | d4 c2d2 d2{f}ed d4  | \
w:  yu va  *  bul *  mam    |  *  Gam ze de *  *  *  yim   | 
e2fg e2d2 c3B A4  | 
w:  de vâ  *  *  *  bul *  mam    | 
(3_1/4B2A2B2 c2d2 c2_2/4BA _1/4B2A2  | \
w:  *  *  *  Ga ri bim  *  *  bir   | 
c2d4c2 B3A A3d  | cBAG ^3/4F2G2 A4 A4  | 
w:  yu va  *  bul *  mam   SAZ  |  *  *  *  *  Ka de rim dir   | 
G2A4G2 d2{f}ed d4  | f4 f2{g}fe e2d2 c2(3BA_1/4B  | \
w:  hep  çek *  ti *  *  *  ren    |  *  İn *  le *  rim  *  hiç   | 
c2d4c2 cBBA A3d  | 
w:  re hâ  *  bul *  *  *  mam    | 
cBAG ^3/4F2G2 A4 A4  | G2A4G2 d2{f}ed d4  | \
w:  *  *  *  *  Ka de rim dir   |  hep  çek *  ti *  *  *  ren    | 
f4 f2{g}fe e2d2 c2(3BA_1/4B  | 
w:  *  İn *  le *  rim  *  hiç   | 
c2d4c2 cBBA A3d  | A4 f2e2 f2e2 f2e2  | \
w:  re hâ  *  bul *  *  *  mam    |  ARANAĞME  | 
f2e2 f2g2 agfe d4  | 
w:   | 
z4 dec2 d2e2 c2BA  | A2_1/4BA dcd2 c_2/4BBA A4  | \
w:   |   | 
e2{g}fe e4 d2{f}ed d4  | 
w:   | 
c2BA _1/4Bcd2 c_2/4BBA A4  | e2{g}fe e4 d2{f}ed d4  | \
w:   |   | 
c2BA _1/4Bcd2 c_2/4BBA A4  | 
w:   | 
c2d14  | d2cd e2{f}ed d2cd e2{f}ed  | \
w:  Hey  hey   |  hey   | 
d3c c3B B2AG d2{f}ed  | 
w:  hey  *  *  *  *  *  *  hey   | 
c2d6 cBAG d4  | e2^3/4fg a2g=f e2d2 c2B2  | \
w:  hey   *  SAZ  |   | 
A2g2 f2e2 eddc d2{f}ed  | 
w:   | 
d4 c2d2 d2{f}ed d4  | e2fg e2d2 c3B A4  | \
w:  *  Gam ze de *  *  *  yim   |  de vâ  *  *  *  bul *  mam    | 
(3_1/4B2A2B2 c2d2 c2_2/4BA _1/4B2A2  | 
w:  *  *  *  Ga ri bim  *  *  bir   | 
c2d4c2 B3A A4  | d4 c2d2 d2{f}ed d4  | \
w:  yu va  *  bul *  mam    |  *  Gam ze de *  *  *  yim   | 
e2fg e2d2 c3B A4  | 
w:  de vâ  *  *  *  bul *  mam    | 
(3_1/4B2A2B2 c2d2 c2_2/4BA _1/4B2A2  | \
w:  *  *  *  Ga ri bim  *  *  bir   | 
c2d4c2 B3A A3d  | cBAG ^3/4F2G2 A4 A4  | 
w:  yu va  *  bul *  mam   SAZ  |  *  *  *  *  Ka de rim dir   | 
G2A4G2 d2{f}ed d4  | f4 f2{g}fe e2d2 c2(3BA_1/4B  | \
w:  hep  çek *  ti *  *  *  ren    |  *  İn *  le *  rim  *  hiç   | 
c2d4c2 cBBA A3d  | 
w:  re hâ  *  bul *  *  *  mam    | 
cBAG ^3/4F2G2 A4 A4  | G2A4G2 d2{f}ed d4  | \
w:  *  *  *  *  Ka de rim dir   |  hep  çek *  ti *  *  *  ren    | 
f4 f2{g}fe e2d2 c2(3BA_1/4B  | 
w:  *  İn *  le *  rim  *  hiç   | 
c2d4c2 cBBA A4  | |


